test/Kodak Ektachrome 64.cube
#Created by: Denver Riddle
#Copyright: (C) Copyright Color Grading Central LLC
DOMAIN_MIN 0.0 0.0 0.0
DOMAIN_MAX 1.0 1.0 1.0
LUT_3D_SIZE 33
0.0170 0.0002 0.0111
0.0339 0.0009 0.0104
0.0519 0.0015 0.0097
0.0726 0.0023 0.0090
0.0909 0.0030 0.0082
0.1103 0.0038 0.0075
0.1252 0.0044 0.0069
0.1460 0.0052 0.0061
0.1612 0.0058 0.0055
0.1758 0.0064 0.0049
0.1932 0.0071 0.0042
0.2147 0.0079 0.0034
0.2396 0.0089 0.0024
0.2616 0.0098 0.0015
0.2904 0.0110 0.0003
0.3226 0.0124 0.0000
0.3562 0.0138 0.0000
0.3882 0.0151 0.0000
0.4188 0.0164 0.0000
0.4447 0.0176 0.0000
0.4650 0.0185 0.0000
0.4828 0.0192 0.0000
0.4957 0.0198 0.0000
0.5081 0.0204 0.0000
0.5210 0.0210 0.0000
0.5329 0.0215 0.0000
0.5466 0.0221 0.0000
0.5603 0.0227 0.0000
0.5747 0.0234 0.0000
0.5897 0.0241 0.0000
0.6064 0.0249 0.0000
0.6262 0.0258 0.0000
0.6452 0.0267 0.0000
0.0170 0.0214 0.0170
0.0346 0.0146 0.0106
0.0578 0.0131 0.0096
0.0755 0.0138 0.0089
0.0969 0.0124 0.0080
0.1136 0.0101 0.0074
0.1312 0.0103 0.0067
0.1469 0.0109 0.0061
0.1638 0.0100 0.0054
0.1814 0.0080 0.0047
0.1990 0.0073 0.0040
0.2203 0.0082 0.0031
0.2426 0.0091 0.0022
0.2669 0.0101 0.0012
0.2954 0.0112 0.0001
0.3275 0.0126 0.0000
0.3612 0.0140 0.0000
0.3967 0.0155 0.0000
0.4240 0.0167 0.0000
0.4485 0.0177 0.0000
0.4704 0.0187 0.0000
0.4882 0.0195 0.0000
0.5010 0.0201 0.0000
0.5137 0.0206 0.0000
0.5264 0.0212 0.0000
0.5385 0.0217 0.0000
0.5519 0.0224 0.0000
0.5647 0.0229 0.0000
0.5803 0.0237 0.0000
0.5953 0.0244 0.0000
0.6150 0.0253 0.0000
0.6345 0.0262 0.0000
0.6531 0.0271 0.0000
0.0170 0.0534 0.0283
0.0341 0.0472 0.0172
0.0612 0.0455 0.0112
0.0779 0.0418 0.0104
0.0996 0.0426 0.0097
0.1203 0.0429 0.0089
0.1365 0.0410 0.0082
0.1538 0.0390 0.0074
0.1707 0.0372 0.0066
0.1884 0.0353 0.0058
0.2057 0.0356 0.0051
0.2271 0.0364 0.0043
0.2473 0.0340 0.0033
0.2734 0.0328 0.0021
0.3020 0.0339 0.0009
0.3341 0.0308 0.0000
0.3707 0.0275 0.0000
0.4031 0.0271 0.0000
0.4302 0.0264 0.0000
0.4547 0.0237 0.0000
0.4765 0.0246 0.0000
0.4910 0.0230 0.0000
0.5040 0.0207 0.0000
0.5175 0.0208 0.0000
0.5315 0.0214 0.0000
0.5446 0.0220 0.0000
0.5583 0.0226 0.0000
0.5696 0.0232 0.0000
0.5862 0.0239 0.0000
0.6013 0.0246 0.0000
0.6213 0.0256 0.0000
0.6404 0.0265 0.0000
0.6593 0.0274 0.0000
0.0170 0.0844 0.0339
0.0342 0.0838 0.0284
0.0610 0.0775 0.0181
0.0790 0.0750 0.0128
0.1041 0.0717 0.0118
0.1214 0.0696 0.0111
0.1393 0.0679 0.0103
0.1602 0.0671 0.0096
0.1767 0.0678 0.0091
0.1912 0.0676 0.0086
0.2124 0.0658 0.0077
0.2338 0.0645 0.0068
0.2540 0.0653 0.0061
0.2804 0.0639 0.0050
0.3103 0.0610 0.0036
0.3417 0.0579 0.0020
0.3789 0.0594 0.0006
0.4111 0.0568 0.0000
0.4424 0.0565 0.0000
0.4637 0.0561 0.0000
0.4819 0.0531 0.0000
0.4994 0.0503 0.0000
0.5127 0.0485 0.0000
0.5256 0.0491 0.0000
0.5382 0.0490 0.0000
0.5533 0.0470 0.0000
0.5667 0.0454 0.0000
0.5807 0.0461 0.0000
0.5951 0.0467 0.0000
0.6104 0.0446 0.0000
0.6311 0.0423 0.0000
0.6503 0.0399 0.0000
0.6695 0.0391 0.0000
0.0170 0.1171 0.0452
0.0341 0.1126 0.0339
0.0613 0.1073 0.0293
0.0789 0.1075 0.0192
0.1062 0.1007 0.0145
0.1266 0.0961 0.0134
0.1447 0.0945 0.0128
0.1620 0.0946 0.0123
0.1780 0.0952 0.0119
0.1961 0.0942 0.0112
0.2146 0.0923 0.0105
0.2396 0.0922 0.0097
0.2600 0.0930 0.0092
0.2865 0.0906 0.0080
0.3188 0.0878 0.0066
0.3514 0.0858 0.0052
0.3855 0.0869 0.0042
0.4181 0.0837 0.0025
0.4496 0.0805 0.0008
0.4710 0.0798 0.0000
0.4900 0.0800 0.0000
0.5079 0.0772 0.0000
0.5210 0.0765 0.0000
0.5339 0.0771 0.0000
0.5468 0.0760 0.0000
0.5625 0.0739 0.0000
0.5723 0.0719 0.0000
0.5894 0.0702 0.0000
0.6040 0.0692 0.0000
0.6219 0.0701 0.0000
0.6418 0.0694 0.0000
0.6609 0.0670 0.0000
0.6795 0.0672 0.0000
0.0170 0.1434 0.0508
0.0340 0.1396 0.0441
0.0614 0.1351 0.0349
0.0790 0.1346 0.0303
0.1061 0.1302 0.0212
0.1279 0.1245 0.0166
0.1464 0.1209 0.0157
0.1652 0.1217 0.0153
0.1825 0.1219 0.0150
0.2008 0.1201 0.0143
0.2184 0.1184 0.0136
0.2443 0.1162 0.0126
0.2647 0.1148 0.0119
0.2914 0.1159 0.0113
0.3239 0.1140 0.0101
0.3568 0.1111 0.0087
0.3910 0.1078 0.0071
0.4241 0.1051 0.0056
0.4526 0.1063 0.0048
0.4776 0.1039 0.0035
0.4963 0.1028 0.0027
0.5128 0.1035 0.0022
0.5264 0.1014 0.0013
0.5404 0.0993 0.0004
0.5539 0.0970 0.0000
0.5696 0.0952 0.0000
0.5831 0.0958 0.0000
0.5974 0.0964 0.0000
0.6120 0.0948 0.0000
0.6296 0.0928 0.0000
0.6496 0.0905 0.0000
0.6683 0.0887 0.0000
0.6885 0.0897 0.0000
0.0170 0.1699 0.0577
0.0339 0.1699 0.0502
0.0616 0.1664 0.0422
0.0790 0.1627 0.0360
0.1061 0.1579 0.0310
0.1277 0.1531 0.0234
0.1459 0.1525 0.0204
0.1695 0.1490 0.0188
0.1869 0.1474 0.0183
0.2051 0.1457 0.0176
0.2229 0.1439 0.0170
0.2460 0.1417 0.0162
0.2694 0.1416 0.0156
0.2963 0.1424 0.0151
0.3289 0.1397 0.0139
0.3620 0.1368 0.0126
0.3972 0.1336 0.0111
0.4304 0.1323 0.0100
0.4590 0.1328 0.0092
0.4843 0.1299 0.0080
0.5007 0.1271 0.0069
0.5183 0.1254 0.0060
0.5322 0.1260 0.0057
0.5451 0.1253 0.0052
0.5615 0.1232 0.0042
0.5769 0.1213 0.0033
0.5910 0.1195 0.0024
0.6050 0.1176 0.0015
0.6193 0.1158 0.0006
0.6376 0.1145 0.0000
0.6577 0.1154 0.0000
0.6784 0.1147 0.0000
0.6989 0.1125 0.0000
0.0170 0.2010 0.0636
0.0339 0.1987 0.0564
0.0617 0.1959 0.0484
0.0790 0.1930 0.0433
0.1061 0.1892 0.0379
0.1278 0.1852 0.0345
0.1460 0.1814 0.0277
0.1702 0.1765 0.0256
0.1911 0.1747 0.0223
0.2093 0.1754 0.0221
0.2271 0.1738 0.0216
0.2489 0.1717 0.0208
0.2739 0.1698 0.0201
0.3008 0.1674 0.0192
0.3337 0.1649 0.0181
0.3670 0.1620 0.0169
0.4060 0.1627 0.0161
0.4364 0.1612 0.0151
0.4652 0.1582 0.0139
0.4890 0.1555 0.0128
0.5064 0.1526 0.0117
0.5255 0.1522 0.0111
0.5391 0.1528 0.0109
0.5524 0.1510 0.0101
0.5688 0.1491 0.0093
0.5812 0.1471 0.0085
0.5987 0.1454 0.0076
0.6128 0.1436 0.0067
0.6305 0.1419 0.0058
0.6490 0.1418 0.0052
0.6695 0.1428 0.0047
0.6890 0.1409 0.0036
0.7078 0.1387 0.0024
0.0170 0.2314 0.0696
0.0339 0.2300 0.0625
0.0619 0.2279 0.0545
0.0790 0.2258 0.0497
0.1061 0.2230 0.0447
0.1278 0.2199 0.0405
0.1463 0.2169 0.0371
0.1702 0.2128 0.0337
0.1908 0.2088 0.0316
0.2132 0.2044 0.0269
0.2311 0.2028 0.0265
0.2528 0.2008 0.0258
0.2782 0.1989 0.0251
0.3052 0.1967 0.0244
0.3385 0.1943 0.0234
0.3720 0.1917 0.0224
0.4114 0.1890 0.0212
0.4420 0.1860 0.0200
0.4714 0.1859 0.0194
0.4937 0.1854 0.0188
0.5133 0.1829 0.0179
0.5323 0.1803 0.0169
0.5459 0.1783 0.0162
0.5592 0.1763 0.0154
0.5762 0.1743 0.0146
0.5914 0.1724 0.0138
0.6059 0.1713 0.0131
0.6208 0.1719 0.0129
0.6389 0.1725 0.0125
0.6573 0.1707 0.0116
0.6775 0.1686 0.0105
0.6968 0.1665 0.0095
0.7159 0.1643 0.0083
0.0170 0.2597 0.0788
0.0339 0.2588 0.0686
0.0620 0.2572 0.0621
0.0790 0.2562 0.0560
0.1062 0.2543 0.0515
0.1278 0.2519 0.0487
0.1464 0.2496 0.0431
0.1702 0.2463 0.0413
0.1910 0.2432 0.0413
0.2130 0.2394 0.0367
0.2347 0.2350 0.0358
0.2566 0.2332 0.0320
0.2821 0.2315 0.0314
0.3095 0.2293 0.0307
0.3429 0.2271 0.0300
0.3799 0.2249 0.0291
0.4168 0.2223 0.0281
0.4506 0.2198 0.0271
0.4776 0.2170 0.0262
0.5001 0.2144 0.0252
0.5203 0.2119 0.0243
0.5367 0.2094 0.0235
0.5512 0.2075 0.0228
0.5666 0.2056 0.0220
0.5834 0.2039 0.0213
0.5996 0.2021 0.0206
0.6141 0.2005 0.0199
0.6285 0.1990 0.0192
0.6464 0.1973 0.0184
0.6647 0.1956 0.0176
0.6852 0.1952 0.0170
0.7080 0.1962 0.0167
0.7254 0.1945 0.0158
0.0170 0.2898 0.0886
0.0339 0.2898 0.0788
0.0618 0.2891 0.0685
0.0790 0.2884 0.0638
0.1062 0.2872 0.0596
0.1279 0.2857 0.0572
0.1467 0.2841 0.0541
0.1703 0.2817 0.0505
0.1912 0.2794 0.0493
0.2131 0.2763 0.0472
0.2346 0.2728 0.0473
0.2606 0.2676 0.0436
0.2866 0.2661 0.0388
0.3153 0.2645 0.0383
0.3478 0.2625 0.0378
0.3861 0.2605 0.0371
0.4228 0.2582 0.0364
0.4580 0.2557 0.0355
0.4843 0.2531 0.0347
0.5071 0.2510 0.0340
0.5251 0.2486 0.0332
0.5437 0.2464 0.0325
0.5574 0.2447 0.0319
0.5746 0.2430 0.0313
0.5894 0.2413 0.0307
0.6084 0.2398 0.0300
0.6231 0.2383 0.0294
0.6409 0.2369 0.0288
0.6577 0.2354 0.0282
0.6752 0.2339 0.0275
0.6982 0.2320 0.0266
0.7181 0.2303 0.0258
0.7379 0.2283 0.0249
0.0170 0.3285 0.0954
0.0339 0.3296 0.0898
0.0616 0.3301 0.0788
0.0791 0.3292 0.0733
0.1062 0.3280 0.0695
0.1280 0.3261 0.0675
0.1469 0.3248 0.0621
0.1704 0.3233 0.0615
0.1914 0.3216 0.0606
0.2132 0.3195 0.0583
0.2346 0.3168 0.0571
0.2608 0.3129 0.0564
0.2905 0.3085 0.0582
0.3226 0.3064 0.0525
0.3569 0.3015 0.0472
0.3918 0.2987 0.0466
0.4287 0.2965 0.0460
0.4636 0.2944 0.0455
0.4915 0.2920 0.0448
0.5124 0.2899 0.0442
0.5314 0.2877 0.0435
0.5516 0.2856 0.0429
0.5655 0.2840 0.0424
0.5837 0.2826 0.0419
0.5980 0.2810 0.0414
0.6176 0.2797 0.0410
0.6324 0.2782 0.0404
0.6505 0.2771 0.0400
0.6693 0.2758 0.0395
0.6880 0.2744 0.0390
0.7090 0.2730 0.0383
0.7295 0.2712 0.0376
0.7488 0.2695 0.0369
0.0170 0.3597 0.1063
0.0339 0.3620 0.0954
0.0614 0.3640 0.0898
0.0791 0.3650 0.0828
0.1063 0.3653 0.0791
0.1279 0.3645 0.0735
0.1471 0.3636 0.0723
0.1705 0.3619 0.0721
0.1915 0.3609 0.0684
0.2133 0.3593 0.0696
0.2348 0.3574 0.0684
0.2608 0.3545 0.0680
0.2905 0.3510 0.0684
0.3266 0.3466 0.0703
0.3615 0.3445 0.0641
0.3968 0.3430 0.0586
0.4346 0.3380 0.0575
0.4674 0.3349 0.0568
0.4984 0.3330 0.0564
0.5182 0.3307 0.0559
0.5393 0.3288 0.0554
0.5596 0.3268 0.0549
0.5743 0.3254 0.0545
0.5919 0.3241 0.0542
0.6097 0.3228 0.0538
0.6270 0.3215 0.0534
0.6416 0.3204 0.0531
0.6598 0.3175 0.0522
0.6783 0.3141 0.0512
0.6975 0.3123 0.0506
0.7202 0.3111 0.0502
0.7395 0.3092 0.0495
0.7593 0.3077 0.0490
0.0170 0.3970 0.1172
0.0339 0.3991 0.1074
0.0612 0.4010 0.1004
0.0788 0.4023 0.0954
0.1064 0.4034 0.0910
0.1281 0.4042 0.0848
0.1474 0.4047 0.0850
0.1705 0.4048 0.0803
0.1915 0.4044 0.0817
0.2135 0.4038 0.0811
0.2349 0.4024 0.0806
0.2611 0.4004 0.0796
0.2908 0.3981 0.0814
0.3267 0.3947 0.0858
0.3660 0.3898 0.0871
0.4030 0.3877 0.0835
0.4410 0.3860 0.0758
0.4744 0.3839 0.0718
0.5018 0.3817 0.0715
0.5261 0.3767 0.0702
0.5464 0.3743 0.0697
0.5647 0.3724 0.0692
0.5831 0.3711 0.0690
0.5986 0.3697 0.0687
0.6189 0.3684 0.0685
0.6365 0.3672 0.0683
0.6552 0.3662 0.0681
0.6737 0.3652 0.0680
0.6919 0.3641 0.0677
0.7110 0.3630 0.0675
0.7335 0.3614 0.0671
0.7548 0.3601 0.0668
0.7730 0.3585 0.0664
0.0170 0.4297 0.1279
0.0339 0.4327 0.1195
0.0609 0.4358 0.1130
0.0788 0.4378 0.1063
0.1064 0.4397 0.0982
0.1282 0.4413 0.0972
0.1477 0.4424 0.0965
0.1706 0.4432 0.0934
0.1916 0.4438 0.0931
0.2135 0.4437 0.0924
0.2349 0.4434 0.0907
0.2611 0.4424 0.0925
0.2909 0.4407 0.0960
0.3267 0.4384 0.0970
0.3664 0.4348 0.1024
0.4115 0.4298 0.1079
0.4473 0.4274 0.1003
0.4813 0.4255 0.0966
0.5092 0.4236 0.0892
0.5326 0.4217 0.0854
0.5518 0.4200 0.0852
0.5724 0.4182 0.0850
0.5919 0.4171 0.0849
0.6083 0.4157 0.0847
0.6284 0.4143 0.0846
0.6459 0.4131 0.0845
0.6649 0.4122 0.0845
0.6841 0.4113 0.0845
0.7032 0.4102 0.0844
0.7228 0.4090 0.0843
0.7446 0.4074 0.0840
0.7658 0.4062 0.0839
0.7863 0.4050 0.0837
0.0170 0.4614 0.1387
0.0339 0.4653 0.1319
0.0607 0.4691 0.1256
0.0788 0.4721 0.1172
0.1064 0.4749 0.1105
0.1282 0.4772 0.1088
0.1480 0.4792 0.1055
0.1707 0.4809 0.1050
0.1918 0.4821 0.1036
0.2137 0.4829 0.1058
0.2351 0.4833 0.1040
0.2612 0.4833 0.1060
0.2909 0.4826 0.1065
0.3270 0.4813 0.1101
0.3665 0.4789 0.1146
0.4119 0.4750 0.1234
0.4551 0.4696 0.1276
0.4877 0.4678 0.1218
0.5159 0.4658 0.1153
0.5369 0.4639 0.1110
0.5590 0.4623 0.1056
0.5805 0.4605 0.1014
0.5993 0.4592 0.1006
0.6184 0.4580 0.1006
0.6369 0.4568 0.1006
0.6580 0.4557 0.1007
0.6752 0.4547 0.1007
0.6926 0.4533 0.1006
0.7124 0.4525 0.1007
0.7340 0.4512 0.1008
0.7555 0.4499 0.1007
0.7762 0.4482 0.1005
0.7971 0.4470 0.1005
0.0170 0.4896 0.1492
0.0339 0.4943 0.1426
0.0605 0.4991 0.1367
0.0788 0.5027 0.1279
0.1061 0.5063 0.1223
0.1283 0.5096 0.1185
0.1483 0.5119 0.1166
0.1708 0.5143 0.1148
0.1918 0.5154 0.1152
0.2137 0.5161 0.1132
0.2353 0.5166 0.1160
0.2615 0.5174 0.1163
0.2913 0.5182 0.1194
0.3271 0.5193 0.1214
0.3666 0.5184 0.1285
0.4119 0.5161 0.1340
0.4553 0.5118 0.1422
0.4930 0.5070 0.1477
0.5183 0.5049 0.1420
0.5437 0.5030 0.1372
0.5659 0.5014 0.1332
0.5875 0.5000 0.1292
0.6039 0.4987 0.1259
0.6255 0.4975 0.1221
0.6445 0.4963 0.1197
0.6661 0.4953 0.1167
0.6855 0.4943 0.1169
0.7047 0.4931 0.1170
0.7242 0.4922 0.1172
0.7444 0.4911 0.1174
0.7670 0.4895 0.1174
0.7873 0.4881 0.1174
0.8068 0.4864 0.1172
0.0170 0.5132 0.1597
0.0339 0.5146 0.1516
0.0603 0.5203 0.1461
0.0788 0.5248 0.1387
0.1059 0.5292 0.1322
0.1284 0.5325 0.1280
0.1485 0.5357 0.1258
0.1708 0.5388 0.1244
0.1919 0.5416 0.1248
0.2138 0.5439 0.1231
0.2354 0.5455 0.1259
0.2614 0.5473 0.1253
0.2912 0.5486 0.1278
0.3271 0.5491 0.1323
0.3669 0.5487 0.1396
0.4120 0.5472 0.1457
0.4551 0.5444 0.1529
0.4935 0.5400 0.1624
0.5231 0.5356 0.1639
0.5488 0.5339 0.1595
0.5677 0.5321 0.1558
0.5939 0.5307 0.1512
0.6087 0.5295 0.1479
0.6319 0.5296 0.1461
0.6511 0.5306 0.1433
0.6729 0.5301 0.1408
0.6922 0.5295 0.1400
0.7120 0.5288 0.1359
0.7313 0.5275 0.1345
0.7519 0.5264 0.1328
0.7743 0.5249 0.1330
0.7965 0.5237 0.1332
0.8150 0.5221 0.1331
0.0170 0.5325 0.1700
0.0339 0.5386 0.1605
0.0601 0.5448 0.1552
0.0788 0.5497 0.1492
0.1058 0.5555 0.1420
0.1283 0.5581 0.1387
0.1488 0.5588 0.1347
0.1709 0.5624 0.1338
0.1920 0.5656 0.1342
0.2138 0.5690 0.1327
0.2355 0.5710 0.1354
0.2615 0.5738 0.1354
0.2915 0.5756 0.1376
0.3274 0.5770 0.1431
0.3668 0.5777 0.1470
0.4123 0.5774 0.1565
0.4554 0.5761 0.1643
0.4935 0.5728 0.1731
0.5248 0.5689 0.1810
0.5505 0.5690 0.1837
0.5728 0.5671 0.1804
0.5992 0.5658 0.1748
0.6189 0.5645 0.1727
0.6385 0.5634 0.1712
0.6596 0.5625 0.1667
0.6816 0.5616 0.1655
0.6993 0.5605 0.1637
0.7185 0.5598 0.1607
0.7395 0.5586 0.1584
0.7590 0.5576 0.1558
0.7823 0.5563 0.1533
0.8041 0.5546 0.1504
0.8222 0.5530 0.1476
0.0170 0.5518 0.1769
0.0339 0.5581 0.1728
0.0599 0.5613 0.1626
0.0788 0.5676 0.1593
0.1056 0.5730 0.1500
0.1281 0.5783 0.1474
0.1490 0.5819 0.1421
0.1710 0.5864 0.1432
0.1920 0.5895 0.1419
0.2139 0.5932 0.1410
0.2356 0.5965 0.1441
0.2617 0.5998 0.1439
0.2915 0.6021 0.1472
0.3274 0.6045 0.1521
0.3670 0.6061 0.1565
0.4122 0.6068 0.1665
0.4551 0.6065 0.1745
0.4937 0.6046 0.1822
0.5245 0.6011 0.1888
0.5521 0.5969 0.1959
0.5772 0.5943 0.2001
0.6039 0.5930 0.1976
0.6237 0.5920 0.1932
0.6435 0.5901 0.1915
0.6667 0.5892 0.1874
0.6889 0.5883 0.1863
0.7082 0.5877 0.1847
0.7273 0.5867 0.1821
0.7480 0.5857 0.1795
0.7678 0.5844 0.1771
0.7884 0.5829 0.1750
0.8108 0.5820 0.1718
0.8293 0.5822 0.1699
0.0170 0.5691 0.1901
0.0339 0.5761 0.1816
0.0597 0.5842 0.1750
0.0788 0.5905 0.1687
0.1054 0.5973 0.1597
0.1278 0.6025 0.1575
0.1492 0.6032 0.1513
0.1711 0.6080 0.1523
0.1921 0.6126 0.1512
0.2140 0.6162 0.1503
0.2356 0.6201 0.1539
0.2617 0.6238 0.1537
0.2917 0.6272 0.1565
0.3277 0.6309 0.1627
0.3671 0.6336 0.1673
0.4125 0.6352 0.1763
0.4554 0.6358 0.1862
0.4938 0.6353 0.1942
0.5248 0.6328 0.2012
0.5519 0.6301 0.2080
0.5800 0.6264 0.2157
0.6064 0.6238 0.2202
0.6289 0.6229 0.2175
0.6492 0.6219 0.2149
0.6722 0.6209 0.2125
0.6951 0.6197 0.2116
0.7150 0.6200 0.2088
0.7348 0.6208 0.2090
0.7553 0.6210 0.2060
0.7761 0.6200 0.2046
0.7988 0.6187 0.2022
0.8185 0.6172 0.1991
0.8375 0.6155 0.1969
0.0170 0.5842 0.1957
0.0339 0.5922 0.1901
0.0596 0.6007 0.1825
0.0788 0.6032 0.1750
0.1053 0.6109 0.1709
0.1278 0.6167 0.1637
0.1492 0.6211 0.1597
0.1711 0.6268 0.1586
0.1922 0.6319 0.1571
0.2141 0.6359 0.1593
0.2357 0.6404 0.1602
0.2619 0.6446 0.1603
0.2918 0.6487 0.1656
0.3277 0.6513 0.1695
0.3673 0.6524 0.1744
0.4122 0.6551 0.1852
0.4551 0.6562 0.1937
0.4940 0.6562 0.2022
0.5251 0.6565 0.2097
0.5522 0.6571 0.2171
0.5802 0.6544 0.2251
0.6076 0.6507 0.2332
0.6329 0.6496 0.2377
0.6533 0.6481 0.2349
0.6765 0.6472 0.2326
0.6991 0.6463 0.2306
0.7192 0.6458 0.2280
0.7395 0.6447 0.2273
0.7601 0.6435 0.2258
0.7810 0.6423 0.2230
0.8044 0.6410 0.2210
0.8240 0.6400 0.2176
0.8415 0.6385 0.2160
0.0170 0.6007 0.2048
0.0339 0.6054 0.1989
0.0594 0.6148 0.1901
0.0788 0.6221 0.1870
0.1051 0.6304 0.1786
0.1276 0.6367 0.1750
0.1492 0.6416 0.1711
0.1711 0.6466 0.1658
0.1922 0.6488 0.1647
0.2142 0.6541 0.1682
0.2357 0.6586 0.1678
0.2618 0.6638 0.1685
0.2920 0.6684 0.1743
0.3279 0.6733 0.1779
0.3673 0.6773 0.1835
0.4125 0.6809 0.1946
0.4554 0.6835 0.2034
0.4941 0.6845 0.2121
0.5253 0.6844 0.2199
0.5524 0.6831 0.2273
0.5805 0.6814 0.2355
0.6079 0.6786 0.2441
0.6356 0.6764 0.2530
0.6573 0.6747 0.2556
0.6820 0.6737 0.2550
0.7050 0.6729 0.2518
0.7241 0.6718 0.2509
0.7459 0.6709 0.2487
0.7654 0.6703 0.2465
0.7869 0.6687 0.2449
0.8105 0.6677 0.2419
0.8299 0.6676 0.2405
0.8457 0.6683 0.2400
0.0170 0.6109 0.2122
0.0339 0.6197 0.2048
0.0592 0.6294 0.2003
0.0788 0.6377 0.1928
0.1049 0.6459 0.1897
0.1274 0.6491 0.1828
0.1492 0.6552 0.1774
0.1711 0.6610 0.1750
0.1923 0.6664 0.1747
0.2144 0.6719 0.1741
0.2359 0.6769 0.1740
0.2621 0.6830 0.1773
0.2919 0.6882 0.1807
0.3279 0.6936 0.1847
0.3675 0.6985 0.1924
0.4122 0.7031 0.2021
0.4551 0.7061 0.2109
0.4943 0.7081 0.2202
0.5251 0.7089 0.2282
0.5527 0.7087 0.2360
0.5807 0.7074 0.2445
0.6081 0.7056 0.2533
0.6359 0.7033 0.2625
0.6613 0.7010 0.2711
0.6891 0.6996 0.2739
0.7120 0.6986 0.2733
0.7314 0.6980 0.2710
0.7524 0.6971 0.2689
0.7708 0.6959 0.2678
0.7915 0.6950 0.2648
0.8154 0.6937 0.2638
0.8353 0.6923 0.2601
0.8511 0.6911 0.2589
0.0170 0.6259 0.2191
0.0339 0.6357 0.2159
0.0590 0.6459 0.2073
0.0788 0.6508 0.2048
0.1048 0.6600 0.1974
0.1273 0.6678 0.1909
0.1492 0.6736 0.1901
0.1710 0.6805 0.1847
0.1924 0.6861 0.1819
0.2145 0.6921 0.1815
0.2361 0.6975 0.1852
0.2621 0.7041 0.1865
0.2922 0.7103 0.1889
0.3281 0.7159 0.1932
0.3675 0.7182 0.2010
0.4125 0.7232 0.2107
0.4554 0.7277 0.2199
0.4943 0.7307 0.2294
0.5254 0.7325 0.2378
0.5524 0.7327 0.2457
0.5805 0.7324 0.2545
0.6079 0.7311 0.2635
0.6362 0.7298 0.2731
0.6616 0.7284 0.2820
0.6912 0.7262 0.2926
0.7165 0.7269 0.2959
0.7369 0.7276 0.2940
0.7573 0.7268 0.2933
0.7784 0.7260 0.2916
0.7970 0.7249 0.2891
0.8210 0.7240 0.2881
0.8410 0.7226 0.2850
0.8569 0.7210 0.2834
0.0170 0.6382 0.2286
0.0339 0.6465 0.2211
0.0589 0.6556 0.2176
0.0788 0.6649 0.2106
0.1046 0.6746 0.2048
0.1271 0.6824 0.2018
0.1492 0.6892 0.1968
0.1710 0.6960 0.1912
0.1925 0.7019 0.1904
0.2146 0.7084 0.1913
0.2361 0.7142 0.1915
0.2623 0.7175 0.1925
0.2921 0.7242 0.1964
0.3282 0.7309 0.2032
0.3678 0.7378 0.2092
0.4127 0.7434 0.2178
0.4551 0.7485 0.2271
0.4945 0.7524 0.2371
0.5256 0.7551 0.2457
0.5526 0.7563 0.2539
0.5807 0.7565 0.2630
0.6082 0.7561 0.2722
0.6364 0.7553 0.2820
0.6618 0.7540 0.2910
0.6914 0.7527 0.3019
0.7176 0.7504 0.3117
0.7407 0.7489 0.3139
0.7615 0.7486 0.3117
0.7825 0.7478 0.3094
0.8034 0.7467 0.3092
0.8254 0.7454 0.3060
0.8457 0.7438 0.3052
0.8621 0.7428 0.3019
0.0170 0.6465 0.2377
0.0339 0.6566 0.2309
0.0587 0.6683 0.2229
0.0788 0.6780 0.2191
0.1045 0.6882 0.2136
0.1269 0.6970 0.2076
0.1492 0.7038 0.2048
0.1708 0.7113 0.2024
0.1924 0.7135 0.1980
0.2146 0.7203 0.1970
0.2362 0.7268 0.1978
0.2626 0.7347 0.2024
0.2924 0.7414 0.2049
0.3284 0.7488 0.2095
0.3677 0.7561 0.2158
0.4124 0.7627 0.2254
0.4554 0.7691 0.2369
0.4946 0.7731 0.2477
0.5259 0.7762 0.2566
0.5530 0.7783 0.2649
0.5810 0.7795 0.2737
0.6085 0.7797 0.2822
0.6361 0.7794 0.2910
0.6620 0.7790 0.2999
0.6917 0.7779 0.3109
0.7179 0.7767 0.3210
0.7412 0.7749 0.3301
0.7654 0.7733 0.3331
0.7865 0.7724 0.3308
0.8089 0.7715 0.3291
0.8302 0.7703 0.3280
0.8490 0.7694 0.3252
0.8665 0.7679 0.3229
0.0170 0.6571 0.2428
0.0339 0.6683 0.2377
0.0586 0.6805 0.2327
0.0788 0.6902 0.2264
0.1043 0.7014 0.2193
0.1269 0.7105 0.2183
0.1492 0.7135 0.2136
0.1707 0.7218 0.2085
0.1924 0.7286 0.2048
