test/Kodak Ektachrome 64.cube
#Created by: Denver Riddle
#Copyright: (C) Copyright Color Grading Central LLC
DOMAIN_MIN 0.0 0.0 0.0
DOMAIN_MAX 1.0 1.0 1.0
LUT_3D_SIZE 5
0.0170 0.0002 0.0111
0.1612 0.0058 0.0055
0.3562 0.0138 0.0000
0.5210 0.0210 0.0000
0.6452 0.0267 0.0000
0.0170 0.2314 0.0696
0.1908 0.2088 0.0316
0.4114 0.1890 0.0212
0.5762 0.1743 0.0146
0.7159 0.1643 0.0083
0.0170 0.4896 0.1492
0.1918 0.5154 0.1152
0.4553 0.5118 0.1422
0.6445 0.4963 0.1197
0.8068 0.4864 0.1172
0.0170 0.6259 0.2191
0.1924 0.6861 0.1819
0.4554 0.7277 0.2199
0.6912 0.7262 0.2926
0.8569 0.7210 0.2834
0.0170 0.7018 0.2824
0.1916 0.7908 0.2473
0.4552 0.8803 0.2826
0.6923 0.9221 0.3647
0.8863 0.9211 0.4500
0.0170 0.0000 0.1972
0.1210 0.0000 0.2058
0.3107 0.0072 0.1203
0.4928 0.0184 0.0248
0.6090 0.0250 0.0000
0.0396 0.1998 0.2259
0.2128 0.2162 0.2272
0.4345 0.2046 0.1412
0.5971 0.1900 0.0572
0.7370 0.1801 0.0118
0.0852 0.5042 0.3081
0.2190 0.5314 0.3091
0.4787 0.5214 0.2717
0.6731 0.5099 0.2219
0.8294 0.5011 0.1813
0.1226 0.6727 0.3900
0.2197 0.7130 0.3908
0.4797 0.7479 0.3510
0.7182 0.7400 0.3786
0.8779 0.7311 0.3497
0.1579 0.7758 0.4591
0.2243 0.8336 0.4599
0.4806 0.9084 0.4181
0.7193 0.9405 0.4541
0.9044 0.9336 0.5094
0.0170 0.0000 0.3525
0.1210 0.0000 0.4037
0.2666 0.0000 0.4642
0.4794 0.0039 0.3753
0.5939 0.0121 0.2857
0.0484 0.1998 0.4526
0.2138 0.2162 0.4708
0.3861 0.1699 0.4914
0.5696 0.1693 0.3932
0.7138 0.1753 0.3000
0.1694 0.4976 0.5219
0.2682 0.5112 0.5224
0.5055 0.5248 0.5234
0.7072 0.5229 0.4252
0.8556 0.5152 0.3484
0.2597 0.7072 0.6119
0.3294 0.7305 0.6129
0.5120 0.7648 0.6139
0.7503 0.7530 0.5553
0.9013 0.7436 0.4920
0.3450 0.8443 0.6801
0.3794 0.8857 0.6810
0.5132 0.9402 0.6820
0.7517 0.9624 0.6351
0.9265 0.9502 0.6366
0.0170 0.0000 0.4278
0.1210 0.0000 0.5171
0.2666 0.0000 0.6234
0.4391 0.0033 0.7112
0.5832 0.0214 0.6319
0.0517 0.1998 0.5905
0.2145 0.2162 0.6197
0.3861 0.1745 0.6803
0.5399 0.1727 0.7347
0.6930 0.1854 0.6547
0.1823 0.4976 0.7180
0.2775 0.5112 0.7307
0.5066 0.5248 0.7477
0.6592 0.4891 0.7597
0.8350 0.4897 0.6753
0.3904 0.7129 0.7800
0.4240 0.7266 0.7804
0.5443 0.7441 0.7812
0.7787 0.7617 0.7821
0.9221 0.7530 0.7004
0.5093 0.8842 0.8401
0.5061 0.9124 0.8405
0.5778 0.9468 0.8408
0.7787 0.9820 0.8408
0.9433 0.9598 0.7951
0.0170 0.0000 0.4386
0.1210 0.0000 0.5590
0.2666 0.0000 0.6986
0.4391 0.0184 0.8172
0.5499 0.0732 0.8972
0.0599 0.1998 0.6527
0.2151 0.2162 0.6878
0.3860 0.1823 0.7784
0.5398 0.1889 0.8569
0.6501 0.2280 0.9158
0.1951 0.4976 0.8260
0.2857 0.5112 0.8427
0.5077 0.5248 0.8676
0.6592 0.4951 0.9086
0.7978 0.4872 0.9351
0.4183 0.7129 0.9203
0.4413 0.7262 0.9300
0.5492 0.7427 0.9379
0.7792 0.7592 0.9494
0.8974 0.7232 0.9552
0.6221 0.9070 0.9694
0.5927 0.9194 0.9698
0.6401 0.9392 0.9708
0.8075 0.9554 0.9717
0.9606 0.9717 0.9726
