test/Kodak Ektachrome 64.cube
#Created by: Denver Riddle
#Copyright: (C) Copyright Color Grading Central LLC
DOMAIN_MIN 0.0 0.0 0.0
DOMAIN_MAX 1.0 1.0 1.0
LUT_3D_SIZE 9
0.0170 0.0002 0.0111
0.0909 0.0030 0.0082
0.1612 0.0058 0.0055
0.2396 0.0089 0.0024
0.3562 0.0138 0.0000
0.4650 0.0185 0.0000
0.5210 0.0210 0.0000
0.5747 0.0234 0.0000
0.6452 0.0267 0.0000
0.0170 0.1171 0.0452
0.1062 0.1007 0.0145
0.1780 0.0952 0.0119
0.2600 0.0930 0.0092
0.3855 0.0869 0.0042
0.4900 0.0800 0.0000
0.5468 0.0760 0.0000
0.6040 0.0692 0.0000
0.6795 0.0672 0.0000
0.0170 0.2314 0.0696
0.1061 0.2230 0.0447
0.1908 0.2088 0.0316
0.2782 0.1989 0.0251
0.4114 0.1890 0.0212
0.5133 0.1829 0.0179
0.5762 0.1743 0.0146
0.6389 0.1725 0.0125
0.7159 0.1643 0.0083
0.0170 0.3597 0.1063
0.1063 0.3653 0.0791
0.1915 0.3609 0.0684
0.2905 0.3510 0.0684
0.4346 0.3380 0.0575
0.5393 0.3288 0.0554
0.6097 0.3228 0.0538
0.6783 0.3141 0.0512
0.7593 0.3077 0.0490
0.0170 0.4896 0.1492
0.1061 0.5063 0.1223
0.1918 0.5154 0.1152
0.2913 0.5182 0.1194
0.4553 0.5118 0.1422
0.5659 0.5014 0.1332
0.6445 0.4963 0.1197
0.7242 0.4922 0.1172
0.8068 0.4864 0.1172
0.0170 0.5691 0.1901
0.1054 0.5973 0.1597
0.1921 0.6126 0.1512
0.2917 0.6272 0.1565
0.4554 0.6358 0.1862
0.5800 0.6264 0.2157
0.6722 0.6209 0.2125
0.7553 0.6210 0.2060
0.8375 0.6155 0.1969
0.0170 0.6259 0.2191
0.1048 0.6600 0.1974
0.1924 0.6861 0.1819
0.2922 0.7103 0.1889
0.4554 0.7277 0.2199
0.5805 0.7324 0.2545
0.6912 0.7262 0.2926
0.7784 0.7260 0.2916
0.8569 0.7210 0.2834
0.0170 0.6659 0.2506
0.1042 0.7117 0.2281
0.1922 0.7402 0.2137
0.2926 0.7712 0.2193
0.4552 0.8045 0.2499
0.5814 0.8243 0.2888
0.6917 0.8268 0.3296
0.7907 0.8226 0.3675
0.8753 0.8138 0.3627
0.0170 0.7018 0.2824
0.1036 0.7519 0.2600
0.1916 0.7908 0.2473
0.2929 0.8326 0.2480
0.4552 0.8803 0.2826
0.5820 0.9082 0.3239
0.6923 0.9221 0.3647
0.7918 0.9257 0.4074
0.8863 0.9211 0.4500
0.0170 0.0000 0.1171
0.0731 0.0000 0.1169
0.1381 0.0018 0.0877
0.2143 0.0062 0.0486
0.3287 0.0126 0.0000
0.4447 0.0176 0.0000
0.5040 0.0202 0.0000
0.5559 0.0225 0.0000
0.6252 0.0257 0.0000
0.0216 0.0943 0.1266
0.1162 0.1043 0.1272
0.1931 0.0998 0.0951
0.2727 0.0976 0.0588
0.3984 0.0930 0.0087
0.4967 0.0863 0.0000
0.5575 0.0826 0.0000
0.6150 0.0803 0.0000
0.6923 0.0734 0.0000
0.0300 0.2164 0.1529
0.1175 0.2288 0.1534
0.2031 0.2175 0.1308
0.2928 0.2082 0.0987
0.4244 0.1996 0.0544
0.5215 0.1894 0.0191
0.5845 0.1861 0.0171
0.6526 0.1795 0.0139
0.7306 0.1765 0.0110
0.0396 0.3570 0.1901
0.1192 0.3760 0.1901
0.2034 0.3738 0.1679
0.3051 0.3586 0.1539
0.4486 0.3483 0.1222
0.5483 0.3372 0.0859
0.6216 0.3320 0.0624
0.6935 0.3276 0.0555
0.7736 0.3183 0.0525
0.0508 0.5000 0.2377
0.1214 0.5161 0.2377
0.2035 0.5244 0.2155
0.3056 0.5262 0.2037
0.4689 0.5199 0.2070
0.5758 0.5088 0.1870
0.6610 0.5040 0.1695
0.7382 0.5001 0.1532
0.8185 0.4951 0.1393
0.0621 0.5900 0.2752
0.1226 0.6109 0.2755
0.2028 0.6274 0.2561
0.3061 0.6395 0.2411
0.4700 0.6457 0.2506
0.5938 0.6342 0.2680
0.6892 0.6286 0.2564
0.7678 0.6250 0.2449
0.8463 0.6231 0.2339
0.0732 0.6522 0.3084
0.1226 0.6800 0.3089
0.2023 0.7033 0.2920
0.3064 0.7194 0.2717
0.4709 0.7390 0.2841
0.5942 0.7415 0.3058
0.7037 0.7336 0.3330
0.7909 0.7292 0.3263
0.8697 0.7286 0.3171
0.0788 0.7038 0.3409
0.1226 0.7300 0.3411
0.2017 0.7592 0.3222
0.3067 0.7860 0.3004
0.4718 0.8203 0.3161
0.5946 0.8340 0.3385
0.7042 0.8350 0.3690
0.8042 0.8301 0.4017
0.8838 0.8240 0.3942
0.0898 0.7427 0.3757
0.1226 0.7758 0.3767
0.2013 0.8147 0.3569
0.3067 0.8495 0.3368
0.4727 0.8941 0.3473
0.5951 0.9231 0.3731
0.7048 0.9325 0.4060
0.8044 0.9343 0.4411
0.8983 0.9289 0.4783
0.0170 0.0000 0.1972
0.0731 0.0000 0.2046
0.1210 0.0000 0.2058
0.1954 0.0005 0.1808
0.3107 0.0072 0.1203
0.4298 0.0141 0.0644
0.4928 0.0184 0.0248
0.5397 0.0218 0.0000
0.6090 0.0250 0.0000
0.0226 0.0943 0.2191
0.1165 0.1043 0.2191
0.1773 0.0847 0.2188
0.2510 0.0779 0.1881
0.3798 0.0793 0.1289
0.4859 0.0781 0.0731
0.5405 0.0764 0.0316
0.5987 0.0777 0.0010
0.6754 0.0732 0.0000
0.0396 0.1998 0.2259
0.1226 0.2087 0.2267
0.2128 0.2162 0.2272
0.3028 0.2123 0.1983
0.4345 0.2046 0.1412
0.5316 0.1951 0.0899
0.5971 0.1900 0.0572
0.6617 0.1875 0.0289
0.7370 0.1801 0.0118
0.0621 0.3504 0.2600
0.1351 0.3635 0.2600
0.2154 0.3755 0.2600
0.3174 0.3665 0.2417
0.4647 0.3537 0.1977
0.5606 0.3467 0.1546
0.6338 0.3380 0.1240
0.7043 0.3341 0.1005
0.7839 0.3291 0.0747
0.0852 0.5042 0.3081
0.1487 0.5166 0.3086
0.2190 0.5314 0.3091
0.3178 0.5344 0.2892
0.4787 0.5214 0.2717
0.5879 0.5142 0.2459
0.6731 0.5099 0.2219
0.7516 0.5063 0.2024
0.8294 0.5011 0.1813
0.1057 0.6025 0.3506
0.1592 0.6201 0.3509
0.2191 0.6382 0.3513
0.3180 0.6465 0.3278
0.4793 0.6511 0.3166
0.6048 0.6403 0.3175
0.7003 0.6338 0.3050
0.7821 0.6305 0.2884
0.8567 0.6255 0.2702
0.1226 0.6727 0.3900
0.1671 0.6965 0.3905
0.2197 0.7130 0.3908
0.3175 0.7315 0.3652
0.4797 0.7479 0.3510
0.6059 0.7482 0.3570
0.7182 0.7400 0.3786
0.8015 0.7352 0.3651
0.8779 0.7311 0.3497
0.1393 0.7262 0.4216
0.1787 0.7527 0.4221
0.2219 0.7753 0.4226
0.3170 0.7996 0.4022
0.4801 0.8302 0.3828
0.6064 0.8423 0.3924
0.7187 0.8422 0.4143
0.8169 0.8358 0.4380
0.8936 0.8300 0.4256
0.1579 0.7758 0.4591
0.1855 0.8087 0.4596
0.2243 0.8336 0.4599
0.3167 0.8675 0.4409
0.4806 0.9084 0.4181
0.6070 0.9321 0.4302
0.7193 0.9405 0.4541
0.8175 0.9414 0.4801
0.9044 0.9336 0.5094
0.0170 0.0000 0.2779
0.0731 0.0000 0.2944
0.1210 0.0000 0.3030
0.1807 0.0000 0.3163
0.2915 0.0002 0.2836
0.4175 0.0075 0.2208
0.4911 0.0122 0.1772
0.5376 0.0155 0.1419
0.6019 0.0201 0.0966
0.0226 0.0943 0.3133
0.1168 0.1043 0.3199
0.1773 0.0863 0.3254
0.2373 0.0717 0.3308
0.3544 0.0643 0.2937
0.4754 0.0695 0.2275
0.5373 0.0700 0.1880
0.5886 0.0737 0.1492
0.6645 0.0777 0.1053
0.0426 0.1998 0.3358
0.1226 0.2087 0.3397
0.2132 0.2162 0.3428
0.2858 0.1940 0.3430
0.4101 0.1795 0.2973
0.5173 0.1807 0.2363
0.5811 0.1793 0.1929
0.6435 0.1777 0.1559
0.7211 0.1753 0.1158
0.0825 0.3390 0.3521
0.1492 0.3465 0.3526
0.2210 0.3527 0.3534
0.3302 0.3600 0.3542
0.4733 0.3568 0.3098
0.5687 0.3505 0.2563
0.6454 0.3454 0.2185
0.7196 0.3388 0.1885
0.7953 0.3342 0.1539
0.1226 0.5042 0.4034
0.1801 0.5132 0.4039
0.2428 0.5234 0.4044
0.3354 0.5355 0.4046
0.4930 0.5285 0.3731
0.6020 0.5207 0.3294
0.6909 0.5165 0.2993
0.7653 0.5131 0.2744
0.8392 0.5078 0.2466
0.1580 0.6099 0.4496
0.2013 0.6270 0.4499
0.2548 0.6406 0.4504
0.3400 0.6532 0.4509
0.4936 0.6581 0.4194
0.6145 0.6467 0.3974
0.7173 0.6411 0.3743
0.7951 0.6373 0.3522
0.8697 0.6321 0.3284
0.1862 0.6916 0.4896
0.2213 0.7113 0.4901
0.2687 0.7242 0.4904
0.3434 0.7427 0.4909
0.4941 0.7573 0.4582
0.6151 0.7565 0.4394
0.7310 0.7458 0.4449
0.8175 0.7417 0.4251
0.8887 0.7367 0.4032
0.2142 0.7523 0.5258
0.2428 0.7748 0.5263
0.2811 0.7933 0.5268
0.3470 0.8181 0.5268
0.4946 0.8410 0.4929
0.6161 0.8513 0.4766
0.7315 0.8495 0.4849
0.8291 0.8424 0.4951
0.9025 0.8358 0.4778
0.2422 0.8127 0.5647
0.2597 0.8375 0.5657
0.2940 0.8589 0.5667
0.3505 0.8862 0.5678
0.4941 0.9212 0.5353
0.6168 0.9459 0.5169
0.7322 0.9526 0.5251
0.8302 0.9523 0.5416
0.9131 0.9402 0.5562
0.0170 0.0000 0.3525
0.0731 0.0000 0.3825
0.1210 0.0000 0.4037
0.1807 0.0000 0.4297
0.2666 0.0000 0.4642
0.3954 0.0000 0.4210
0.4794 0.0039 0.3753
0.5323 0.0078 0.3314
0.5939 0.0121 0.2857
0.0242 0.0943 0.4117
0.1171 0.1043 0.4218
0.1773 0.0883 0.4396
0.2373 0.0732 0.4554
0.3332 0.0621 0.4798
0.4585 0.0629 0.4354
0.5296 0.0676 0.3848
0.5825 0.0718 0.3412
0.6571 0.0788 0.2924
0.0484 0.1998 0.4526
0.1249 0.2087 0.4601
0.2138 0.2162 0.4708
0.2858 0.1959 0.4800
0.3861 0.1699 0.4914
0.5063 0.1666 0.4436
0.5696 0.1693 0.3932
0.6307 0.1719 0.3490
0.7138 0.1753 0.3000
0.0898 0.3390 0.4904
0.1520 0.3465 0.4970
0.2241 0.3527 0.5029
0.3310 0.3600 0.5071
0.4506 0.3359 0.5093
0.5520 0.3235 0.4533
0.6248 0.3233 0.4027
0.6948 0.3237 0.3581
0.7764 0.3241 0.3094
0.1694 0.4976 0.5219
0.2162 0.5049 0.5219
0.2682 0.5112 0.5224
0.3517 0.5146 0.5229
0.5055 0.5248 0.5234
0.6161 0.5230 0.4734
0.7072 0.5229 0.4252
0.7848 0.5200 0.3901
0.8556 0.5152 0.3484
0.2191 0.6153 0.5720
0.2515 0.6274 0.5725
0.2997 0.6372 0.5730
0.3745 0.6465 0.5735
0.5093 0.6610 0.5740
0.6355 0.6492 0.5312
0.7334 0.6476 0.4926
0.8142 0.6446 0.4597
0.8819 0.6389 0.4233
0.2597 0.7072 0.6119
0.2875 0.7179 0.6124
0.3294 0.7305 0.6129
0.3943 0.7446 0.6134
0.5120 0.7648 0.6139
0.6361 0.7646 0.5764
0.7503 0.7530 0.5553
0.8334 0.7479 0.5276
0.9013 0.7436 0.4920
0.3004 0.7758 0.6436
0.3185 0.7933 0.6440
0.3520 0.8118 0.6445
0.4087 0.8288 0.6450
0.5132 0.8526 0.6455
0.6366 0.8614 0.6125
0.7511 0.8579 0.5965
0.8443 0.8487 0.5896
0.9149 0.8423 0.5616
0.3450 0.8443 0.6801
0.3535 0.8683 0.6805
0.3794 0.8857 0.6810
0.4279 0.9087 0.6815
0.5132 0.9402 0.6820
0.6367 0.9572 0.6450
0.7517 0.9624 0.6351
0.8448 0.9607 0.6329
0.9265 0.9502 0.6366
0.0170 0.0000 0.4024
0.0731 0.0000 0.4417
0.1210 0.0000 0.4755
0.1807 0.0000 0.5115
0.2666 0.0000 0.5594
0.3673 0.0000 0.6092
0.4599 0.0000 0.5695
0.5305 0.0001 0.5243
0.5929 0.0046 0.4719
0.0269 0.0943 0.4818
0.1175 0.1043 0.4979
0.1773 0.0898 0.5206
0.2373 0.0747 0.5491
0.3332 0.0659 0.5862
0.4343 0.0706 0.6204
0.5165 0.0732 0.5807
0.5771 0.0789 0.5389
0.6500 0.0907 0.4814
0.0508 0.1998 0.5397
0.1273 0.2087 0.5507
0.2141 0.2162 0.5599
0.2858 0.1974 0.5810
0.3861 0.1707 0.6093
0.4833 0.1661 0.6308
0.5578 0.1683 0.5897
0.6166 0.1725 0.5468
0.7028 0.1780 0.4934
0.0930 0.3390 0.5922
0.1569 0.3465 0.6021
0.2267 0.3527 0.6110
0.3315 0.3600 0.6183
0.4506 0.3377 0.6310
0.5328 0.3126 0.6423
0.6080 0.3105 0.6052
0.6797 0.3139 0.5563
0.7678 0.3182 0.5022
0.1793 0.4976 0.6421
0.2191 0.5049 0.6460
0.2731 0.5112 0.6516
0.3548 0.5146 0.6567
0.5061 0.5248 0.6616
0.5952 0.5049 0.6613
0.6832 0.5003 0.6169
0.7649 0.5002 0.5723
0.8443 0.5000 0.5145
0.2717 0.6143 0.6708
0.2984 0.6216 0.6713
0.3395 0.6284 0.6718
0.4038 0.6357 0.6723
0.5166 0.6459 0.6728
0.6481 0.6527 0.6732
0.7517 0.6509 0.6287
0.8291 0.6496 0.5876
0.8964 0.6449 0.5416
0.3315 0.7129 0.7058
0.3473 0.7213 0.7058
0.3794 0.7305 0.7063
0.4346 0.7407 0.7068
0.5293 0.7553 0.7073
0.6486 0.7704 0.7083
0.7680 0.7583 0.6764
0.8469 0.7537 0.6403
0.9143 0.7483 0.5994
0.3828 0.7903 0.7394
0.3943 0.8078 0.7399
0.4183 0.8190 0.7404
0.4588 0.8322 0.7409
0.5386 0.8508 0.7413
0.6492 0.8730 0.7418
0.7685 0.8682 0.7099
0.8578 0.8541 0.6919
0.9272 0.8479 0.6568
0.4405 0.8701 0.7710
0.4393 0.8867 0.7710
0.4527 0.9024 0.7715
0.4843 0.9198 0.7720
0.5477 0.9460 0.7725
0.6497 0.9721 0.7729
0.7689 0.9745 0.7452
0.8580 0.9676 0.7286
0.9365 0.9555 0.7187
0.0170 0.0000 0.4278
0.0731 0.0000 0.4772
0.1210 0.0000 0.5171
0.1807 0.0000 0.5607
0.2666 0.0000 0.6234
0.3673 0.0000 0.6778
0.4391 0.0033 0.7112
0.5140 0.0113 0.6788
0.5832 0.0214 0.6319
0.0292 0.0943 0.5224
0.1177 0.1043 0.5428
0.1773 0.0898 0.5737
0.2373 0.0780 0.6094
0.3332 0.0719 0.6568
0.4343 0.0737 0.6958
0.4994 0.0850 0.7224
0.5620 0.0898 0.6896
0.6430 0.0992 0.6426
0.0517 0.1998 0.5905
0.1293 0.2087 0.6085
0.2145 0.2162 0.6197
0.2857 0.1987 0.6423
0.3861 0.1745 0.6803
0.4833 0.1699 0.7107
0.5399 0.1727 0.7347
0.6032 0.1779 0.6990
0.6930 0.1854 0.6547
0.0991 0.3390 0.6586
0.1608 0.3465 0.6689
0.2289 0.3527 0.6776
0.3320 0.3600 0.6873
0.4506 0.3392 0.7084
0.5328 0.3162 0.7299
0.5856 0.3110 0.7457
0.6608 0.3121 0.7093
0.7584 0.3172 0.6636
0.1823 0.4976 0.7180
0.2246 0.5049 0.7243
0.2775 0.5112 0.7307
0.3587 0.5146 0.7389
0.5066 0.5248 0.7477
0.5952 0.5063 0.7551
0.6592 0.4891 0.7597
0.7460 0.4873 0.7222
0.8350 0.4897 0.6753
0.2816 0.6143 0.7574
0.3064 0.6216 0.7603
0.3457 0.6279 0.7627
0.4084 0.6352 0.7653
0.5193 0.6450 0.7691
0.6486 0.6517 0.7734
0.7295 0.6338 0.7707
0.8100 0.6307 0.7348
0.8871 0.6287 0.6848
0.3904 0.7129 0.7800
0.3988 0.7203 0.7804
0.4240 0.7266 0.7804
0.4675 0.7337 0.7808
0.5443 0.7441 0.7812
0.6552 0.7544 0.7822
0.7787 0.7617 0.7821
0.8583 0.7577 0.7462
0.9221 0.7530 0.7004
0.4507 0.7988 0.8092
0.4500 0.8127 0.8096
0.4680 0.8215 0.8101
0.4962 0.8317 0.8105
0.5604 0.8458 0.8109
0.6635 0.8608 0.8114
0.7787 0.8735 0.8119
0.8649 0.8586 0.7835
0.9344 0.8517 0.7466
0.5093 0.8842 0.8401
0.4999 0.8975 0.8405
0.5061 0.9124 0.8405
0.5254 0.9254 0.8408
0.5778 0.9468 0.8408
0.6731 0.9668 0.8408
0.7787 0.9820 0.8408
0.8651 0.9768 0.8167
0.9433 0.9598 0.7951
0.0170 0.0000 0.4406
0.0731 0.0000 0.4987
0.1210 0.0000 0.5463
0.1807 0.0000 0.5972
0.2666 0.0000 0.6689
0.3673 0.0000 0.7294
0.4391 0.0106 0.7719
0.4952 0.0296 0.8049
0.5669 0.0452 0.7721
0.0314 0.0943 0.5497
0.1180 0.1043 0.5730
0.1773 0.0898 0.6097
0.2373 0.0812 0.6501
0.3332 0.0732 0.7044
0.4343 0.0824 0.7566
0.4993 0.0899 0.7890
0.5468 0.1078 0.8158
0.6204 0.1184 0.7829
0.0558 0.1998 0.6285
0.1313 0.2087 0.6440
0.2148 0.2162 0.6620
0.2857 0.2000 0.6900
0.3861 0.1784 0.7367
0.4833 0.1735 0.7767
0.5399 0.1806 0.8033
0.5836 0.1937 0.8246
0.6709 0.2041 0.7913
0.1009 0.3390 0.7034
0.1646 0.3465 0.7156
0.2309 0.3527 0.7263
0.3325 0.3600 0.7418
0.4506 0.3407 0.7706
0.5327 0.3198 0.7999
0.5856 0.3159 0.8197
0.6408 0.3183 0.8356
0.7384 0.3227 0.8012
0.1902 0.4976 0.7800
0.2303 0.5049 0.7881
0.2814 0.5112 0.7953
0.3632 0.5146 0.8031
0.5072 0.5248 0.8148
0.5952 0.5079 0.8305
0.6592 0.4920 0.8402
0.7229 0.4842 0.8460
0.8220 0.4836 0.8143
0.2901 0.6143 0.8260
0.3134 0.6216 0.8313
0.3512 0.6279 0.8358
0.4132 0.6352 0.8408
0.5217 0.6450 0.8440
0.6486 0.6517 0.8513
0.7295 0.6352 0.8553
0.7921 0.6187 0.8571
0.8732 0.6156 0.8234
0.4052 0.7129 0.8527
0.4108 0.7198 0.8551
0.4341 0.7262 0.8573
0.4763 0.7329 0.8600
0.5459 0.7427 0.8633
0.6572 0.7523 0.8667
0.7788 0.7592 0.8692
0.8440 0.7417 0.8668
0.9128 0.7367 0.8316
0.5103 0.8078 0.8736
0.5013 0.8147 0.8740
0.5085 0.8205 0.8740
0.5283 0.8273 0.8744
0.5786 0.8370 0.8749
0.6805 0.8472 0.8757
0.7837 0.8541 0.8757
0.8741 0.8608 0.8761
0.9442 0.8559 0.8377
0.5620 0.8958 0.9033
0.5472 0.9091 0.9037
0.5468 0.9177 0.9042
0.5618 0.9271 0.9047
0.6070 0.9451 0.9052
0.6993 0.9591 0.9057
0.7949 0.9726 0.9062
0.8745 0.9810 0.9066
0.9538 0.9647 0.8763
0.0170 0.0000 0.4386
0.0731 0.0000 0.5052
0.1210 0.0000 0.5590
0.1807 0.0000 0.6206
0.2666 0.0000 0.6986
0.3673 0.0000 0.7712
0.4391 0.0184 0.8172
0.4952 0.0396 0.8526
0.5499 0.0732 0.8972
0.0337 0.0943 0.5608
0.1182 0.1043 0.5866
0.1773 0.0898 0.6292
0.2373 0.0844 0.6785
0.3331 0.0786 0.7444
0.4343 0.0858 0.8019
0.4993 0.1007 0.8394
0.5468 0.1172 0.8697
0.6018 0.1483 0.9076
0.0599 0.1998 0.6527
0.1333 0.2087 0.6718
0.2151 0.2162 0.6878
0.2857 0.2013 0.7216
0.3860 0.1823 0.7784
0.4832 0.1801 0.8269
0.5398 0.1889 0.8569
0.5836 0.2033 0.8844
0.6501 0.2280 0.9158
0.1059 0.3390 0.7394
0.1648 0.3465 0.7541
0.2331 0.3527 0.7666
0.3330 0.3600 0.7812
0.4506 0.3422 0.8174
0.5327 0.3232 0.8534
0.5856 0.3210 0.8795
0.6407 0.3254 0.9012
0.7135 0.3400 0.9259
0.1951 0.4976 0.8260
0.2362 0.5049 0.8371
0.2857 0.5112 0.8427
0.3663 0.5146 0.8527
0.5077 0.5248 0.8676
0.5952 0.5095 0.8913
0.6592 0.4951 0.9086
0.7229 0.4881 0.9229
0.7978 0.4872 0.9351
0.2992 0.6143 0.8804
0.3211 0.6216 0.8882
0.3582 0.6279 0.8945
0.4208 0.6352 0.9019
0.5234 0.6450 0.9125
0.6486 0.6517 0.9227
0.7295 0.6362 0.9313
0.7921 0.6211 0.9373
0.8574 0.6099 0.9460
0.4183 0.7129 0.9203
0.4230 0.7198 0.9255
0.4413 0.7262 0.9300
0.4778 0.7329 0.9316
0.5492 0.7427 0.9379
0.6591 0.7523 0.9447
0.7792 0.7592 0.9494
0.8440 0.7427 0.9529
0.8974 0.7232 0.9552
0.5212 0.8078 0.9456
0.5132 0.8147 0.9481
0.5154 0.8205 0.9504
0.5336 0.8268 0.9533
0.5842 0.8366 0.9567
0.6839 0.8458 0.9610
0.7860 0.8526 0.9636
0.8741 0.8585 0.9657
0.9318 0.8390 0.9633
0.6221 0.9070 0.9694
0.6002 0.9139 0.9698
0.5927 0.9194 0.9698
0.5997 0.9263 0.9703
0.6401 0.9392 0.9708
0.7253 0.9485 0.9717
0.8075 0.9554 0.9717
0.8800 0.9614 0.9722
0.9606 0.9717 0.9726
